!!!OTL: LANGE LANGE LISE
!!!ARE: Europa, Mitteleuropa, Deutschland, Schleswig
!!!SCT: K2263
!!!YEM: Copyright 1995, estate of Helmut Schaffrath.
**kern
*ICvox
*Ivox
*M2/4
*k[]
*C:
=1
{8g
8g
8a
8a
=2
4g
4e}
=3
{8g
8g
8a
8a
=4
4g
4e}
=5
{8g
8g
8g
8g
=6
4b
8b}
{8a
=7
8g
8g
8f
8d
=8
4c
4r}
==
!!!AGN: Kinder - Lied, Reigen, Tanz - Spiel
!!!ONB: ESAC (Essen Associative Code) Database: KINDER
!!!AMT: simple duple
!!!AIN: vox
!!!EED: Helmut Schaffrath
!!!EEV: 1.0
*-
